X: 1
T: Haste to the Wedding
C: British Isles, New England
M: 6/8
R: jig
K: D
A| "D"AFA Aaf| "G"ede fdB| "D"AFA A[dG]F| "A"EFE E2 A|
"D"AFA Aaf|"G"ede fdB| "D"AFA "A7"faf|"D"ded d2 :|
|:a2| "D"afa afa| "G"bgb bgb| "D"afa agf| "Em"gfg "A7"efg|
"D"a3 f3| "G"ede fdB| "A7"AFA faf| "D"ded d2 :|
